X:1
T:Title
%%score 1 2 3
L:1/8
M:2/2
K:C
V:1 treble nm="Part_1"
V:2 treble-8 nm="Part_2"
V:3 treble-8 nm="Part_3"
V:1
 A8 | B8 | c6 B2 | A4 A4- | A4 G4 | A4 B4- | B2 A2 G4- | G4 ^F4 | G8 | z4 (3:2:1A6- | %10
 (3:2:2A2 B4 c4 | c8 | B8 | c4 d4- | d2 c2 d4- | d2 c2 A4 | B4 G4- | G4 e4- | e2 d2 B4 | c4 d4- | %20
 d2 c2 c4- | c4 B4 | c8 | G8 | B8 | c8 | A8 | A8 | B8 | c8 | A8 | d4 c4- | c2 B2 A4- | A4 ^G4 | %34
 A8 | z8 | G8 | F4 A4- | A4 G4 | E4 F4 | G8 | E4 F4 | E2 C4 D2 | C2 F4 E2 | F4 G4- | G2 F2 D4 | %46
 E6 D2 | F8 | z8 | F8 | G8 | A8 | A8 | (3:2:2c8 _B4 | G8 | F4 G4 | A4 F4 | D8 | G6 F2 | E6 D2 | %60
 E4 F4- | F2 E2 D4 | ^C2 C4 B,2 | D8 | z8 | F8- | F8 | F8 | G8 | F4 G4 | A4 F4 | E8 | D8 | D8 | %74
 F8 | C8 | D4 E4- | E4 F4 | D8 | G8 | F4 E4- | E4 A4- | A4 F4 | G6 F2 | E2 D2 E4 | F4 D4- | D4 C4 | %87
 D8 || G8 | F8 | G8 | A8- | A4 A4 | A8 | A4 A4 | A8 | G4 A4 | F4 _B4- | B2 A2 A4- | A4 G4 | A8 | %101
 z8 | A8 | A4 A4 | A8 | c8 | A8 | G8 | F6 G2 | A4 _B4- | B2 G2 A4- | A2 F2 G4- | G2 F2 E4- | %113
 E2 D2 D4- | D4 C4 | D8 || G8 | F8 | G8 | A8 | A4 A4 | A4 A4 | A4 A4 | A8 | G4 A4 | F4 _B4- | %126
 B2 A2 A4- | A4 G4 | A8 | z8 | G8 | F8 | G8 | A8 | A4 A4 | A4 A4 | A8 | c8 | A8 | G8 | F6 G2 | %141
 A4 _B4- | B2 G2 A4- | A2 F2 G4- | G2 F2 E4- | E2 D2 D4- | D4 C4 | D8 |] %148
V:2
 d8- | d8 | e8 | c4 A4 | B8 | A4 d4- | d2 c2 B4 | A8 | z4 G4 | c8- | c8 | A8 | G8 | A4 B4 | G4 z4 | %15
 g4 f4 | d4 e4 | c8 | z4 G4 | A4 B4 | c8 | d8 | c8 | z4 B4 | d8 | e4 c4- | c4 d4 | f6 e2 | d8 | %29
 z4 c4- | c4 d4- | d4 e4- | e2 A2 c4 | B8 | A8 | F4 D4 | E8 | D8 | d4 e4 | c4 A4 | B4 c4- | c4 d4 | %42
 c4 F2 _B2 | A2 F2 G3 F | D4 C4 | c4 _B2 A2 | G8 | F8 | z8 | A8 | _B6 A2 | F4 c4 | d4 f4 | e4 c4- | %54
 c4 B4 | d4 B4 | c4 d4 | B4 G4- | G4 c4- | c2 B2 A4 | G4 A4 | D4 F2 G2 | E8 | D8 | z8 | A4 B4 | %66
 A4 d4- | d2 c2 A4 | B4 c4 | d4 e4 | f4 d4- | d4 ^c4 | d8 | B4 G4 | A8- | A8 | F4 G4 | A4 D4- | %78
 D4 G4- | G4 E4 | A8- | A8 | D8 | E4 C4- | C4 G4 | A4 F4 | E8 | D8 || c8 | d8 | B8 | A8 | F4 F4 | %93
 D8 | z4 d4 | c4 f4 | e4 c4 | d8 | G4 A4 | _B8 | A8 | z8 | d8 | c4 c4 | F8 | A6 B2 | c8- | c8 | %108
 d4 B4 | A4 d4 | e4 c4 | d4 _B4 | G4 A4 | F4 G4 | _E8 | D8 || c8 | d8 | B8 | A8 | F4 F4 | D4 D4 | %122
 z4 d4 | c4 f4 | e4 c4 | d8 | G4 A4 | _B8 | A8 | z8 | c8 | d8 | B8 | A8 | d4 d4 | c4 c4 | F8 | %137
 A6 B2 | c8- | c8 | d4 B4 | A4 d4 | e4 c4 | d4 _B4 | G4 A4 | F4 G4 | _E8 | D8 |] %148
V:3
 D8 | G8 | C8 | F8 | E8 | F4 G4- | G2 C2 G4 | D8 | E4 C4- | C4 F4- | F4 A2 B2 | c2 f4 e2 | g8 | %13
 e4 d4 | B4 G4 | z4 d4 | G4 C4 | z4 c4 | e2 f2 g4 | e4 d4 | A8 | G8 | C8 | E8 | D8 | C8 | F8 | D8 | %28
 G8 | C8 | F8 | D4 A4- | A8 | E8 | F4 D4 | A4 d4- | d2 c4 B2 | d4 A4 | F4 E4 | A4 D4 | G4 C4 | %41
 E4 D4 | A6 F2- | F2 D2 C4 | F4 E4 | C4 G4 | C8 | c8 | z8 | c8 | d8 | c4 F4- | F4 D4 | C8 | E8 | %55
 D4 E2 G2 | F2 A2 D4 | G8 | E4 C4- | C4 z4 | C2 E2 D4 | A4 A4- | A2 B2 G4 | A8 | F6 E2 | D8- | D8 | %67
 D4 F4 | E8 | D4 C4 | F4 G4 | A8 | D8 | G8 | D8 | F8 | A4 B4 | c4 d4 | A4 B4- | B8 | c8 | z4 c4 | %82
 d8 | B4 c4- | c2 G2 B4 | c4 A4- | A4 G4 | A8 || E8 | D8 | E8 | F4 D4 | A2 B2 c2 Bc | d6 c2 | %94
 A4 D4 | F8 | C4 F4 | D4 G4 | _E4 D4 | G8 | D8 | z8 | D8 | F4 F4 | c8 | F8- | F8 | E8 | D4 E4 | %109
 F4 G4 | E4 A4 | D4 G2 A2 | _B4 c4 | A4 _B4 | G6 F2 | A8 || E8 | D8 | E8 | F4 D4 | A2 B2 c2 Bc | %121
 d6 c2 | A4 D4 | F8 | C4 F4 | D4 G4 | _E4 D4 | G8 | D8 | z8 | E8 | D8 | E8 | F4 D4- | D4 D4 | %135
 F4 F4 | c4 c4 | F8- | F8 | E8 | D4 E4 | F4 G4 | E4 A4 | D4 G2 A2 | _B4 c4 | A4 _B4 | G6 F2 | A8 |] %148

